libs/ui/packages/crypto-icons/src/svg/XTZ.svg

<svg width="24" height="24" viewBox="0 0 24 24" fill="none">
<path fill-rule="evenodd" clip-rule="evenodd" d="M13.6424 19.4999C12.5474 19.4999 11.7494 19.2419 11.2484 18.7274C10.7482 18.2114 10.4977 17.6557 10.4977 17.0602C10.4977 16.8427 10.5412 16.6589 10.6289 16.5104C10.7145 16.363 10.8381 16.2413 10.9867 16.1579C11.1382 16.0724 11.3242 16.0289 11.5454 16.0289C11.7667 16.0289 11.9534 16.0724 12.1049 16.1579C12.2564 16.2442 12.3749 16.3612 12.4627 16.5104C12.5504 16.6589 12.5939 16.8427 12.5939 17.0602C12.5939 17.3234 12.5302 17.5379 12.4019 17.7044C12.2895 17.8593 12.1301 17.9738 11.9474 18.0307C12.0989 18.2369 12.3374 18.3832 12.6637 18.4687C12.9899 18.5609 13.3162 18.6067 13.6417 18.6067C14.0792 18.6118 14.5083 18.4862 14.8739 18.2459C15.2407 18.0052 15.5114 17.6497 15.6854 17.1809C15.8602 16.7107 15.9479 16.1782 15.9479 15.5827C15.9479 14.9354 15.8519 14.3827 15.6599 13.9244C15.4732 13.4602 15.1964 13.1167 14.8297 12.8932C14.4728 12.6728 14.0612 12.5569 13.6417 12.5587C13.3627 12.5587 13.0132 12.6727 12.5939 12.9022L11.8252 13.2802V12.9022L15.2842 8.36619H10.4977V13.0739C10.4977 13.4639 10.5847 13.7842 10.7602 14.0362C10.9342 14.2882 11.2027 14.4142 11.5627 14.4142C11.8424 14.4142 12.1102 14.3227 12.3667 14.1389C12.624 13.9545 12.8483 13.7281 13.0304 13.4692C13.0485 13.4241 13.0789 13.3851 13.1182 13.3567C13.1498 13.3298 13.1899 13.315 13.2314 13.3147C13.2959 13.3147 13.3709 13.3462 13.4587 13.4084C13.5383 13.4951 13.582 13.6088 13.5809 13.7264C13.5709 13.8074 13.5564 13.8878 13.5374 13.9672C13.3394 14.4022 13.0649 14.7344 12.7162 14.9639C12.3746 15.1905 11.9733 15.3101 11.5634 15.3074C10.5269 15.3074 9.81069 15.1072 9.41469 14.7059C9.01869 14.3054 8.82069 13.7609 8.82069 13.0739V8.36619H6.37494V7.48944H8.81994V5.49744L8.26194 4.94694V4.49994H9.88644L10.4977 4.80894V7.48944L16.8209 7.47219L17.4509 8.09094L13.5719 11.9054C13.8069 11.8131 14.0539 11.755 14.3054 11.7329C14.7254 11.7329 15.1964 11.8649 15.7207 12.1289C16.2509 12.3862 16.6582 12.7417 16.9432 13.1939C17.2289 13.6409 17.4127 14.0707 17.4937 14.4832C17.5752 14.8442 17.6192 15.2126 17.6249 15.5827C17.6304 16.2918 17.4688 16.9922 17.1532 17.6272C16.8499 18.246 16.3446 18.7429 15.7207 19.0357C15.0724 19.3468 14.3615 19.5056 13.6424 19.4999Z" fill="#2C7DF7"/>
</svg>

<svg width="24" height="24" viewBox="0 0 24 24" fill="none"><path fill="#2c7df7" fill-rule="evenodd" d="M13.642 19.5q-1.642 0-2.394-.773-.75-.774-.75-1.667 0-.326.13-.55a.95.95 0 0 1 .359-.352q.226-.13.558-.13t.56.13.358.352.13.55q0 .395-.191.644a.9.9 0 0 1-.455.327q.227.309.717.438.489.138.978.138c.437.005.866-.12 1.232-.361q.55-.36.811-1.065.263-.705.263-1.598 0-.971-.288-1.659-.28-.696-.83-1.03a2.24 2.24 0 0 0-1.188-.335q-.42 0-1.048.343l-.769.378v-.378l3.46-4.536h-4.787v4.708q0 .584.262.962t.803.378q.42 0 .804-.275a2.8 2.8 0 0 0 .663-.67.26.26 0 0 1 .088-.112.18.18 0 0 1 .113-.042q.097 0 .228.093c.08.087.123.2.122.318q-.015.122-.044.241-.297.652-.82.997a2.06 2.06 0 0 1-1.154.343q-1.554 0-2.148-.601-.594-.6-.594-1.632V8.366H6.375V7.49H8.82V5.497l-.558-.55V4.5h1.624l.612.309v2.68l6.323-.017.63.619-3.88 3.814q.356-.139.734-.172.63 0 1.416.396.795.386 1.222 1.065.43.67.55 1.29.123.542.132 1.099a4.5 4.5 0 0 1-.472 2.044 3.03 3.03 0 0 1-1.432 1.409c-.649.31-1.36.47-2.079.464" clip-rule="evenodd"/></svg>
